src/renderer/assets/svg/logo-thorchain.svg

<svg id="thorchain_logo" width="117" height="26" viewBox="0 0 117 26" fill="none" xmlns="http://www.w3.org/2000/svg">
<path fill-rule="evenodd" clip-rule="evenodd" d="M11.9502 12.1695L6.42027 6.51939L21.8283 0L11.9502 12.1695ZM17.4801 17.8275L0 25.2518L11.9502 12.1696L17.4801 17.8275Z" fill="url(#paint0_linear)"/>
<path d="M30.6448 9.27612H27.9402V7.8367H34.9252V9.27872H32.2292V17.415H30.6448V9.27612Z" fill="#101921"/>
<path d="M38.4177 7.8367H39.9574V11.9778H43.8506V7.8367H45.4028V17.415H43.8506V13.4175H39.9574V17.415H38.4177V7.8367Z" fill="#101921"/>
<path fill-rule="evenodd" clip-rule="evenodd" d="M50.1912 15.6653C50.4729 16.3454 50.8912 16.8073 51.4458 17.0511C51.9917 17.2942 52.7401 17.4155 53.691 17.415C54.642 17.4144 55.3924 17.2931 55.9424 17.0511C56.4924 16.8085 56.9106 16.3451 57.1971 15.661C57.4835 14.9769 57.6267 13.9759 57.6267 12.6581C57.6273 11.3313 57.4865 10.3215 57.2041 9.6289C56.9218 8.93628 56.5012 8.46443 55.9424 8.21334C55.3748 7.96168 54.6243 7.83614 53.691 7.8367C52.7577 7.83727 52.0138 7.96281 51.4591 8.21334C50.9038 8.46726 50.4832 8.9428 50.1973 9.63996C49.9115 10.3371 49.7686 11.3446 49.7686 12.6624C49.7686 13.9841 49.9094 14.9851 50.1912 15.6653ZM55.7778 14.7811C55.6369 15.2527 55.4056 15.5735 55.0839 15.7435C54.7629 15.9135 54.3 15.9986 53.6954 15.9986C53.0791 15.9986 52.6125 15.9135 52.2955 15.7435C51.975 15.5667 51.7467 15.2459 51.6105 14.7811C51.4743 14.3163 51.4062 13.6078 51.4062 12.6556C51.4062 11.6773 51.4811 10.9481 51.6307 10.4681C51.7804 9.98742 52.0138 9.66435 52.3307 9.49885C52.6477 9.33334 53.1011 9.25059 53.691 9.25059C54.2986 9.25116 54.7608 9.33164 55.0778 9.49205C55.3942 9.65415 55.6251 9.9775 55.7707 10.4621C55.9163 10.9467 55.9891 11.6779 55.9891 12.6556C55.9891 13.601 55.9186 14.3095 55.7778 14.7811Z" fill="#101921"/>
<path fill-rule="evenodd" clip-rule="evenodd" d="M65.1415 7.8367H61.1194V17.415H62.7684V13.702C63.5192 13.7199 64.1672 13.7289 64.7125 13.7289L66.4286 17.415H68.1044L66.2006 13.4952C66.6826 13.3433 67.1055 13.0532 67.4135 12.6635C67.7222 12.2746 67.8765 11.6561 67.8765 10.8079C67.8765 9.6845 67.6307 8.90845 67.1391 8.47975C66.6476 8.05105 65.9817 7.8367 65.1415 7.8367ZM65.8583 12.0888C65.6217 12.3265 65.2889 12.4454 64.8599 12.4454L62.7684 12.4411V9.27429H64.8599C65.2872 9.27141 65.6199 9.37959 65.8583 9.59885C66.0966 9.8181 66.2158 10.222 66.2158 10.8105C66.214 11.425 66.0949 11.8511 65.8583 12.0888Z" fill="#101921"/>
<path d="M73.0249 17.0391C72.5612 16.788 72.2072 16.3139 71.9626 15.6166C71.7181 14.9194 71.5961 13.9121 71.5967 12.5948C71.5967 11.3438 71.7209 10.3722 71.9693 9.68008C72.2176 8.98796 72.5819 8.50756 73.0622 8.23888C73.5413 7.97076 74.1622 7.8367 74.925 7.8367C75.4261 7.8372 75.9263 7.87785 76.4211 7.95829C76.8555 8.0243 77.285 8.12002 77.7069 8.24483V9.45901C77.4586 9.40856 77.1045 9.36208 76.6447 9.31957C76.1849 9.27705 75.7157 9.2558 75.2372 9.2558C74.6907 9.2558 74.2704 9.34281 73.9762 9.51683C73.682 9.69085 73.469 10.0162 73.337 10.4929C73.2046 10.9691 73.1383 11.6776 73.1383 12.6186C73.1383 13.5596 73.2004 14.2695 73.3246 14.7485C73.4488 15.2258 73.6558 15.5532 73.9456 15.7306C74.2354 15.908 74.6617 15.9973 75.2248 15.9984C76.0548 16.0055 76.8844 15.9587 77.7086 15.8581V17.0697C76.9552 17.2965 76.0154 17.4116 74.8894 17.415C74.1101 17.4155 73.4885 17.2902 73.0249 17.0391Z" fill="#101921"/>
<path d="M81.2012 7.8367H82.7409V11.9778H86.634V7.8367H88.1862V17.415H86.634V13.4175H82.7409V17.415H81.2012V7.8367Z" fill="#101921"/>
<path fill-rule="evenodd" clip-rule="evenodd" d="M97.4417 7.8367H95.5122L92.552 17.4124H94.1187L94.8113 15.1411H98.1096L98.8146 17.415H100.41L97.4417 7.8367ZM96.4523 9.21339L97.7386 13.7031H95.166L96.4523 9.21339Z" fill="#101921"/>
<path d="M103.903 7.8367H105.649V17.415H103.903V7.8367Z" fill="#101921"/>
<path d="M110.015 7.8367H111.252L115.45 14.6765V7.8367H117V17.415H115.763L111.564 10.5795V17.415H110.015V7.8367Z" fill="#101921"/>
<defs>
<linearGradient id="paint0_linear" x1="0" y1="12.6259" x2="21.8283" y2="12.6259" gradientUnits="userSpaceOnUse">
<stop stop-color="#33FF99"/>
<stop offset="1" stop-color="#00CCFF"/>
</linearGradient>
</defs>
</svg>

<svg xmlns="http://www.w3.org/2000/svg" width="117" height="26" fill="none" viewBox="0 0 117 26"><path fill="url(#a)" fill-rule="evenodd" d="M11.95 12.17 6.42 6.52 21.828 0zm5.53 5.658L0 25.252 11.95 12.17z" clip-rule="evenodd"/><path fill="#101921" d="M30.645 9.276H27.94v-1.44h6.985V9.28H32.23v8.136h-1.584zm7.773-1.439h1.54v4.14h3.893v-4.14h1.552v9.578H43.85v-3.997h-3.894v3.997h-1.54z"/><path fill="#101921" fill-rule="evenodd" d="M50.191 15.665c.282.68.7 1.142 1.255 1.386.546.243 1.294.365 2.245.364.951 0 1.701-.122 2.251-.364.55-.242.969-.706 1.255-1.39.286-.684.43-1.685.43-3.003 0-1.327-.14-2.336-.423-3.03-.282-.692-.703-1.164-1.262-1.415-.567-.251-1.318-.377-2.251-.376-.933 0-1.677.126-2.232.376-.555.254-.976.73-1.262 1.427-.286.697-.428 1.705-.428 3.022 0 1.322.14 2.323.422 3.003m5.587-.884c-.141.472-.372.792-.694.962-.321.17-.784.256-1.389.256-.616 0-1.083-.085-1.4-.256-.32-.176-.548-.497-.684-.962-.137-.465-.205-1.173-.205-2.125 0-.979.075-1.708.225-2.188.15-.48.383-.804.7-.97.317-.165.77-.247 1.36-.247.608 0 1.07.08 1.387.241.316.162.547.485.693.97.145.485.218 1.216.218 2.194 0 .945-.07 1.653-.211 2.125m9.363-6.944H61.12v9.578h1.65v-3.713c.75.018 1.398.027 1.944.027l1.716 3.686h1.675l-1.903-3.92a2.503 2.503 0 0 0 1.213-.831c.308-.39.462-1.008.462-1.856 0-1.123-.245-1.9-.737-2.328-.491-.429-1.157-.643-1.998-.643m.717 4.252c-.236.237-.57.356-.998.356l-2.092-.004V9.274h2.092c.427-.003.76.106.998.325.239.22.358.623.358 1.211-.002.615-.121 1.041-.358 1.279" clip-rule="evenodd"/><path fill="#101921" d="M73.025 17.04c-.464-.252-.818-.726-1.062-1.423-.245-.698-.367-1.705-.366-3.022 0-1.251.124-2.223.372-2.915.249-.692.613-1.172 1.093-1.441.48-.268 1.1-.402 1.863-.402.501 0 1.001.04 1.496.121.434.066.864.162 1.286.287v1.214c-.248-.05-.602-.097-1.062-.14a15.28 15.28 0 0 0-1.408-.063c-.546 0-.967.087-1.26.26-.295.175-.508.5-.64.977-.132.476-.199 1.185-.199 2.126 0 .94.062 1.65.187 2.13.124.477.33.804.62.982.29.177.717.266 1.28.267.83.008 1.66-.04 2.484-.14v1.212c-.754.227-1.694.342-2.82.345-.779 0-1.4-.125-1.864-.376m8.176-9.202h1.54v4.14h3.893v-4.14h1.552v9.578h-1.552v-3.997h-3.893v3.997H81.2z"/><path fill="#101921" fill-rule="evenodd" d="M97.442 7.837h-1.93l-2.96 9.575h1.567l.692-2.27h3.299l.705 2.273h1.595zm-.99 1.376 1.287 4.49h-2.573z" clip-rule="evenodd"/><path fill="#101921" d="M103.903 7.837h1.746v9.578h-1.746zm6.112 0h1.237l4.198 6.84v-6.84H117v9.578h-1.237l-4.199-6.835v6.835h-1.549z"/><defs><linearGradient id="a" x1="0" x2="21.828" y1="12.626" y2="12.626" gradientUnits="userSpaceOnUse"><stop stop-color="#3F9"/><stop offset="1" stop-color="#0CF"/></linearGradient></defs></svg>
